!!!!SEGMENT: pl-wnifc--2374-n--006_mikuli-karol--sieben-lieder-op-27-sehnsucht.krn
!!!cenid: 18xx:3895
!!!COM: Mikuli, Karol
!!!COM-rismID: pe106110
!!!CDT: 1819-1897
!!!CNT:
!!!GTL: Sieben lieder op. 27
!!!OTL: Sehnsucht
!!!PDT: 1880
!!!AGN:
!!!SMS-siglum: PL-Wnifc
!!!SMS-shelfmark: 2374/n
!!!SMS-shelfwork: 006 G
!!!SMS-variant:
!!!SMS-altvar:
!!!NIFC-rismSourceID: 1001155254
!!!NIFC-rismChildID: 1001155271
!!!NIFC-islandoraID: nifc:211968
!!!URL-pdf-islandora: https://repozytorium.nifc.pl/islandora/object/nifc%3A211968/datastream/PDF/view
!!!URL-scan: https://polish.musicsources.pl/pl/lokalizacje/galeria/druki-muzyczne/16819 @EN{Scan on Polish Music Sources Website} @PL{Skany w portalu Dziedzictwo Muzyki Polskiej w otwartym dostępie}
!!!ONB-nifc:
!!!AIN: 1 piano 1 tenor
!!!key: D
!!!filter-modern: sic -sq | shed -e "s/:rj/:RJ/L" | shed -k -e "s/([^a-gA-Gn#X-])[<>]/$1/g" | shed -e "s/LO:DY:(a|b|rj)/LO:dy:$1/L" | shed -e "s/-//B" | tie -s  | modori -m | humtr -p
**kern	**kern	**dynam	**kern	**text	**dynam
*part2	*part2	*part2	*part1	*part1	*part1
*staff3	*staff2	*	*staff1	*staff1	*
*I"Pianoforte.	*I"Pianoforte.	*	*I"Singstimme.	*	*
*I'pf	*I'pf	*	*I'V	*	*
*ICklav	*ICklav	*	*ICvox	*	*
*Ipiano	*Ipiano	*	*Itenor	*	*
*IGacmp	*IGacmp	*	*IGsolo	*	*
*mI"Pianoforte	*mI"Pianoforte	*	*mI"Voce	*	*
*clefF4	*clefG2	*	*clefG2	*	*
*k[f#c#]	*k[f#c#]	*	*k[f#c#]	*	*
*D:	*D:	*	*D:	*	*
*M6/8	*M6/8	*	*M6/8	*	*
*MM92	*MM92	*	*MM92	*	*
!!!OMD:
!!!OMD-mod: Bewegt. [quarter]. = 92
!	!LO:TX:a:t=Bewegt.:mod=	!	!	!	!
!LO:TX:a:t=MM [dotted quarter] = 92:mod=	!LO:TX:a:t=MM [dotted quarter] = 92:mod=	!	!LO:TX:a:t=MM [dotted quarter] = 92:mod=	!	!
8G#X\L	8g#X/L	p	4r	.	.
8A\J	8a/J	.	.	.	.
=1	=1	=1	=1	=1	=1
*^	*^	*	*	*	*
[4.B-X/	8r	[4.b-X/	8r	.	2.r	.	.
.	8D\L 8G#X	.	8d\L 8fn	.	.	.	.
.	8D\J 8G#	.	8d\J 8f	.	.	.	.
8B-/L]	4D\ 4G#	8b-/L]	4d\ 4f	.	.	.	.
8cn/	.	8ccn/	.	.	.	.	.
8B-/J	8r	8b-/J	8r	.	.	.	.
=2	=2	=2	=2	=2	=2	=2	=2
[4.A/	8r	[4.a/	8r	<	2.r	.	.
.	8D\L	.	8d\L 8f#X	.	.	.	.
.	8D\J	.	8d\J 8f#	.	.	.	.
8A/L]	4D\	8a/L]	4d\ 4f#	.	.	.	.
8G#X/	.	8g#X/	.	.	.	.	.
8A/J	8r	8a/J	8r	.	.	.	.
=3	=3	=3	=3	=3	=3	=3	=3
[4.A#X/	8r	[4.a#X/	8r	.	2.r	.	.
.	8C#\L 8F#	.	8e\L 8f#	.	.	.	.
.	8C#\J 8F#	.	8e\J 8f#	.	.	.	.
8A#/L]	4C#\ 4F#	8a#/L]	4e\ 4f#	.	.	.	.
8B/	.	8b/	.	.	.	.	.
8c#/J	8r	8cc#/J	8r	.	.	.	.
=4	=4	=4	=4	=4	=4	=4	=4
[4.d/	8r	[4.dd/	8r	.	2.r	.	.
.	8BB\L 8F#	.	8d\L 8f#	.	.	.	.
.	8BB\J 8F#	.	8d\J 8f#	.	.	.	.
8d/L]	4BB\ 4F#	8dd/L]	4d\ 4f#	.	.	.	.
8c#/	.	8cc#/	.	.	.	.	.
8d/J	8r	8dd/J	8r	.	.	.	.
!!LO:LB:g=original
=5	=5	=5	=5	=5	=5	=5	=5
*ped	*	*	*	*	*	*	*
[4.d/	8r	[4.dd/	8r	.	2.r	.	.
.	8BB-X\L 8G	.	8d\L 8g	.	.	.	.
*Xped	*	*	*	*	*	*	*
.	8BB-\J 8G	.	8d\J 8g	.	.	.	.
8d/L]	4BB-\ 4G	8dd/L]	4d\ 4g	.	.	.	.
8c#/	.	8cc#/	.	.	.	.	.
8d/J	8r	8dd/J	8r	.	.	.	.
=6	=6	=6	=6	=6	=6	=6	=6
*ped	*	*	*	*	*	*	*
[4.e/	8r	[4.ee/	8r	.	2.r	.	.
.	8BB-X\L 8B-X	.	8d\L 8g#X	.	.	.	.
*Xped	*	*	*	*	*	*	*
.	8BB-\J 8B-	.	8d\J 8g#	.	.	.	.
8e/L]	4BB-\ 4B-	8ee/L]	4d\ 4g#	.	.	.	.
8d#X/	.	8dd#X/	.	.	.	.	.
8e/J	8r	8ee/J	8r	.	.	.	.
*v	*v	*	*	*	*	*	*
*	*v	*v	*	*	*	*
=7	=7	=7	=7	=7	=7
.	8qc#/	.	.	.	.
8AA:\ 8E: 8A:	8c#:/ 8a: 8ee:	.	2.r	.	.
8r	8r	.	.	.	.
[8fn>^\	[8ffn^>/	.	.	.	.
(8f>\L]	(8ff/L]	.	.	.	.
8e>\	8ee/	.	.	.	.
8c#>\J	8cc#/J	.	.	.	.
=8	=8	=8	=8	=8	=8
4.B-X\	4.b-X/	.	4r	.	.
.	.	.	8r	.	.
8A\)	8a/)	.	8r	.	.
!	!	!	!	!	!LO:DY:a
8r	8r	.	8g#X/	Als	p
8r	8r	.	8a/	mein	.
=9	=9	=9	=9	=9	=9
8r	8r	.	[4.b-X\	Au-	.
8D\L 8G#X	8fn/L 8dd	p	.	.	.
8D\J 8G#	8f/J 8dd	.	.	.	.
8D\ 8G#	8f/ 8dd	.	8b-\]	.	.
8r	8r	.	8ccn\	-ge	.
8r	8r	.	8b-\	sie	.
!!LO:LB:g=original
=10	=10	=10	=10	=10	=10
8r	8r	.	[4.a/	fand_	.
8D\L 8A	8f#X/L 8dd	.	.	.	.
8D\J 8A	8f#/J 8dd	.	.	.	.
8D\ 8A	8f#/ 8dd	.	8a/]	,	.
8r	8r	.	8g#X/	und	.
8r	8r	.	8a/	mein	.
=11	=11	=11	=11	=11	=11
8r	8r	.	(4b-X\	Herz_	.
8D\L 8G#X	8fn/L 8dd	.	.	.	.
8D\J 8G#	8f/J 8dd	.	[8ffn\)	.	.
8D\ 8G#	8f/ 8dd	.	8ff\]	.	.
8r	8r	.	8dd\	sie	.
8r	8r	.	8b-\	er-	.
=12	=12	=12	=12	=12	=12
8r	8r	.	4.a/	-kannt,	.
8D\L 8A	8f#X/L 8dd	.	.	.	.
8D\J 8A	8f#/J 8dd	.	.	.	.
8D\ 8A	8f#/ 8dd	.	8r	.	.
8r	8r	.	8g#X/	o	.
8r	8r	.	8a/	wie	.
=13	=13	=13	=13	=13	=13
*^	*	*	*	*	*
!	!	!	!	!LO:TX:a:i:t=mit immer steigendemFeuer und immer beweg.:mod=mit immer steigendem Feuer und immer beweg.	!	!
8r	2ryy	8r	.	4.b\	glüht-	.
8GG/L	.	8B/L 8d 8b	.	.	.	.
8GG/J	.	8B/J 8d 8b	.	.	.	.
8r	.	8r	.	4cc#\	-te	.
8B/L	4FF#\	8e/L 8cc#	.	.	.	.
8A#X/J	.	8e/J 8cc#	.	8cc#\	die	.
*v	*v	*	*	*	*	*
=14	=14	=14	=14	=14	=14
8r	8r	.	[4.dd\	Brust_	.
8BB\L 8B	8d/L 8f# 8dd	.	.	.	.
8BB\J 8B	8d/J 8f# 8dd	.	.	.	.
8BB\ 8B	8d/ 8f# 8dd	.	8dd\]	.	.
8r	8r	.	8ee\	voll	.
8r	8r	.	8dd\	Ent-	.
!!LO:LB:g=original
=15	=15	=15	=15	=15	=15
*	*^	*	*	*	*
(4.A#X\	[4.cc#/	8r	.	[4.cc#\	-zü-	.
.	.	8f#\L	.	.	.	.
.	.	8f#\J	.	.	.	.
8An\L	8cc#/L]	4f#\	.	8cc#\]	.	.
8G#X\	8b#X/	.	.	8dd#X\	-cken,	.
8C##X\J	8bn/J	8g#X\	.	8ee#X\	voll	.
=16	=16	=16	=16	=16	=16	=16
*^	*	*	*	*	*	*
8ryy	[4.D#X\)	[4.a#X/	8r	.	[4.ff#\	Lust_	.
8F#/L 8A#X	.	.	8d#X\L 8f#	.	.	.	.
8F#/J 8A#	.	.	8d#\J 8f#	.	.	.	.
8F#/ 8A#	8D#\L]	8a#/]	8d#\ 8f#	.	8ff#\]	.	.
8ryy	(8D#\	8r	8ryy	.	8ee#X\	O,	.
8ryy	8C#X\J)	8r	8ryy	.	8ff#\	wie	.
=17	=17	=17	=17	=17	=17	=17	=17
!	!	!	!	!	!	!LO:MO:mod=glüht',	!LO:DY:a
8r	[4.BB#X\	8r	8r	.	[4.ff#\	glüht'_	f
8A/L	.	(8f#/L	4d#X\	.	.	.	.
8G#X/J	.	8g#X/J	.	.	.	.	.
!	!	!	!	!	!	!LO:MO:null:mod=.	!
4.F#/	4.BB#\]	4.g##X/)	4.d#\	.	8ff#\]	,	.
.	.	.	.	.	8cc##X\	o	.
.	.	.	.	.	8dd#X\	wie	.
*	*	*v	*v	*	*	*	*
=18	=18	=18	=18	=18	=18	=18
8r	4.C#\	(8c#/L 8a#X	.	8dd#X\	glüh-	.
8F#/L 8A#X	.	8f#/	.	8cc#\	-te	.
8F#/J 8A#	.	8c#/J	.	8a#X/	die	.
8r	4.D#X\	4.A#X/)	.	4.f#/	Brust	.
8F#/L	.	.	.	.	.	.
8F#/J	.	.	.	.	.	.
*v	*v	*	*	*	*	*
=19	=19	=19	=19	=19	=19
*	*^	*	*	*	*
!	!LO:N:vis=2	!	!	!	!	!
4.GG#X/	(8B/L	2.B\	.	4g#X/	voll	.
.	8g#X/	.	.	.	.	.
.	8f#/J	.	.	8g#/	Ent-	.
4.C#/	8e#X/L	.	.	8g#/	-zü-	.
.	8d#X/	.	.	8b/	-cken,	.
.	8c#/J	.	.	8a#X/	voll	.
*	*v	*v	*	*	*	*
!!LO:PB:g=original
=20	=20	=20	=20	=20	=20
8r	(8A#X/L	.	4.f#/	Lust!	.
8FF#/L 8F#	(8c#/	.	.	.	.
8FF#/J 8F#	[8f#/J	.	.	.	.
8FF#/ 8F#	8A#/) 8c#) 8f#] 8a#X)	.	8r	.	.
!	!	!	!	!	!LO:DY:a
8r	8r	.	8e#X/	Wie	p
8r	8r	.	8f#/	voll	.
=21	=21	=21	=21	=21	=21
8r	8r	.	[4.g/	Düf-	.
8EE#X/L 8E#X	8B/L 8d 8g	p	.	.	.
8EE#/J 8E#	8B/J 8d 8g	.	.	.	.
8EE#/ 8E#	8B/ 8d 8g	.	8g/]	.	.
8r	8r	.	8f#/	-te	.
8r	8r	.	8g/	die	.
=22	=22	=22	=22	=22	=22
8r	8r	.	[4.g#X/	Au'_	.
8EE#X/L 8E#X	8B/L 8c# 8g#X	.	.	.	.
8EE#/J 8E#	8B/J 8c# 8g#	.	.	.	.
8EE#/ 8E#	8B/ 8c# 8g#	.	8g#/]	,	.
8r	8r	.	8f##X/	und	.
8r	8r	.	8g#/	der	.
=23	=23	=23	=23	=23	=23
8r	8r	.	[4.a/	Him-	.
8FF#/L 8F#	8A/L 8c# 8a	.	.	.	.
8FF#/J 8F#	8A/J 8c# 8a	.	.	.	.
8FF#/ 8F#	8A/ 8c# 8a	.	8a/]	.	.
8r	8r	.	8g#X/	-mel	.
8r	8r	.	8a/	wie	.
=24	=24	=24	=24	=24	=24
8r	8r	.	[4.ee\	blau_	.
8CC#/L 8C#	8A/L 8e 8gn 8a	.	.	.	.
8CC#/J 8C#	8A/J 8e 8g 8a	.	.	.	.
8CC#/ 8C#	8A/ 8e 8g 8a	.	8ee\]	,	.
8r	8r	.	8cc#\	und	.
8r	8r	.	8a/	der	.
!!LO:LB:g=original
=25	=25	=25	=25	=25	=25
8r	8r	.	[4.a/	Wald_	.
8DD/L 8D	8A/L 8d 8f# 8a	.	.	.	.
8DD/J 8D	8A/J 8d 8f# 8a	.	.	.	.
8DD/ 8D	8A/ 8d 8f# 8a	.	8a/]	.	.
8r	8r	.	8g#X/	vol!	.
8r	8r	.	8a/	Ge-	.
=26	=26	=26	=26	=26	=26
8r	8r	.	[4.b-X\	-sang_	.
8GG/L 8G	8B-X/L 8d 8gn 8b-X	.	.	.	.
8GG/J 8G	8B-/J 8d 8g 8b-	.	.	.	.
8GG/ 8G	8B-/ 8d 8g 8b-	.	8b-\]	,	.
8r	8r	.	8a/	und	.
8r	8r	.	8b-\	die	.
=27	=27	=27	=27	=27	=27
8r	8r	.	[4.b-X\	Lüf-	.
8BB-X\L 8G	8c#/L 8e 8b-X	.	.	.	.
8BB-\J 8G	8c#/J 8e 8b-	.	.	.	.
!LO:N:vis=4..	!LO:N:vis=4..	!	!	!	!
!LO:TX:a:i:t=ritard.	!	!	!	!	!
(<4BB-\ 4A-X	4d/ 4fn (>4b-	.	8b-\]	.	.
!	!	!	!LO:TX:a:i:t=ritard.	!	!
.	.	.	8dd\	-te	.
16r)yy	16ryy	.	16ccn\LL	voll	.
16BB-\) 16G	16c#X/ 16e 16b-)	.	16b-\JJ	.	.
=28	=28	=28	=28	=28	=28
!	!LO:SIC:v:s=4.d;/ 4.fn 4.b-	!	!	!	!
4.BB-X;\ 4.A-X	4.d;/ 4.fn 4.b	.	4.b-X;\	Klang.	.
8r;	8r;	.	8r;	.	.
!	!	!	!LO:TX:a:i:t=etwas langsamer und mit halber	!	!LO:DY:a
8An\L	8a/L	ppp	8a/	Oh-	pp
8B-X\J	8b-X/J	.	8b-X/	-ne	.
=29	=29	=29	=29	=29	=29
*^	*^	*	*	*	*
[4.B-X/	8r	[4.b-X/	8r	.	[4.b-X\	sie_	.
.	8BB-X\L 8A-X	.	8d\L 8fn	.	.	.	.
.	8BB-\J 8A-	.	8d\J 8f	.	.	.	.
8B-/L]	8BB-\ 8A-	8b-/L]	8d\ 8f	.	8b-\]	.	.
(<8An/	8r	(8an/	8r	.	8a/	wie	.
8A-X/J	8r	8a-X/J	8r	.	8a-X/	so	.
!!LO:LB:g=original
=30	=30	=30	=30	=30	=30	=30	=30
!	!	!	!	!	!LO:TX:a:i:t=Stimme.	!	!
!	!	!	!	!	!	!LO:MO:mod=kalt,	!
[4.G/)	8r	[4.g/)	8r	.	[4.g/	kalt_	.
.	8BBn\L	.	8d\L 8fn	.	.	.	.
.	8BB\J	.	8d\J 8f	.	.	.	.
!	!	!	!	!	!	!LO:MO:null:mod=.	!
8G/L]	8Cn\	8g/L]	8cn\ 8e-X	.	8g/]	,	.
(8A/	8r	(8a/	8r	.	8a/	und	.
8B-X/J	8r	8b-X/J	8r	.	8b-X\	die	.
=31	=31	=31	=31	=31	=31	=31	=31
[4.Bn/)	8r	[4.bn/)	8r	.	[4.bn\	Welt_	.
.	8C#X\L	.	8g#X\L	.	.	.	.
.	8C##X\J	.	8f##X\J 8a#X	.	.	.	.
(8B/L]	8D#X\	(8b/L]	8f#X\ 8an	.	8b\]	.	.
8A#X/	8r	8a#X/	8r	.	8a#X/	wie	.
8An/J	8r	8an/J	8r	.	8an/	so	.
=32	=32	=32	=32	=32	=32	=32	=32
!	!	!	!	!	!	!LO:MO:mod=alt,	!
4.G#X/)	8r	4.g#X/)	8r	.	[4.g#X/	alt_	.
.	8E\L	.	8B\L 8e 8b	.	.	.	.
.	8E\J	.	8B\J 8e 8b	.	.	.	.
!	!	!	!	!	!	!LO:MO:null:mod=.	!
8ryy	8E\	8B/ 8e 8b	8ryy	.	8g#/]	,	.
4ryy	8r	8r	4ryy	.	8a/	und	.
.	8r	8r	.	.	8b/	die	.
*v	*v	*	*	*	*	*	*
*	*v	*v	*	*	*	*
=33	=33	=33	=33	=33	=33
!	!	!	!LO:TX:a:i:t=erstes Zeitmass.	!	!
8r	8r	.	4.ccn\	Er-	.
8E\L 8A 8cn	8e/L 8a 8ccn	.	.	.	.
!	!LO:TX:a:i:t=cres._molto:problem:dynamics with line extensions:mod=	!LO:HP:b:i:t=cresc.--molto:ext=cd	!	!	!
8E\J 8A 8c	8e/J 8a 8cc	<	.	.	.
8r	8r	.	4cc#X\	-de	.
8E\L 8Gn 8B-X 8c#X	8e/L 8gn 8b-X 8cc#X	.	.	.	.
8E\J 8G 8B- 8c#	8e/J 8g 8b- 8cc#	.	8cc#\	wie	.
=34	=34	=34	=34	=34	=34
*	*^	*	*	*	*
!	!	!	!	!	!	!LO:DY:a
8r	8r	8r	.	4.dd\	leer,	.
8Fn\L 8A 8d	8fn/L 8a 8dd	8r	.	.	.	.
8F\J 8A 8d	8f/J 8a 8dd	8r	.	.	.	.
!	!	!	!	!LO:TX:t=cresc.:problem:dynamics with extension lines:mod=	!	!
8r	8r	8r	.	4dd\	und	<
8G\L 8B-X 8dn	8d#X/L 8dd#X	8b-X\L 8ddn	.	.	.	.
8G\J 8B- 8d	8e/J 8ee	8b-\J 8dd	[[	8dd\	das	[[
*	*v	*v	*	*	*	*
!!LO:LB:g=original
=35	=35	=35	=35	=35	=35
!	!LO:S:s=2:note:problem:note-level slur	!	!	!	!LO:DY:a
2.G#X\ 2.B-X [2.d	[2.fn\ (>2.b-X [2.dd [2.ffn	f >	[2.dd\	Herz_	f
=36	=36	=36	=36	=36	=36
4.A\ 4.d]	4.f\] 4.a) 4.dd] 4.ff]	]	4.dd\]	,	.
4r;	4r;	.	8r;	.	.
!	!	!	!	!	!LO:DY:a
.	.	.	8fn/	und	p
8r	8r	.	8g/	das	.
=37	=37	=37	=37	=37	=37
2.r	2.r	.	4.a/	Herz,	.
!	!	!	!	!LO:MO:mod=ach,	!
.	.	.	[4.b-X^\	ach_	.
=38	=38	=38	=38	=38	=38
!	!	!	!	!LO:MO:null:mod=.	!
2.AA\ 2.A	2.e/ 2.g 2.cc#	mf	4.b-\]	,	.
.	.	.	4.a/	so	.
=39	=39	=39	=39	=39	=39
*^	*^	*	*	*	*
8r	4.D\	4.dd/	8r	.	2.d/	schwer!	.
8A/L	.	.	8d\L 8fn	.	.	.	.
8A/J	.	.	8d\J 8f	.	.	.	.
8A/	8r	8r	8d\ 8f	.	.	.	.
*v	*v	*	*	*	*	*	*
(8G#X/L	(8g#X/L	8r	.	.	.	.
8A/J)	8a/J)	8r	.	.	.	.
=40	=40	=40	=40	=40	=40	=40
*^	*	*	*	*	*	*
[4.B-X/	8r	[4.b-X/	8r	.	2.r	.	.
.	8D\L 8G#X	.	8d\L 8fn	.	.	.	.
.	8D\J 8G#	.	8d\J 8f	.	.	.	.
8B-/L]	8D\ 8G#	8b-/L]	8d\ 8f	.	.	.	.
8cn/	8r	8ccn/	8r	.	.	.	.
8B-/J	8r	8a#X/J	8r	.	.	.	.
=41	=41	=41	=41	=41	=41	=41	=41
[4.A/	8r	[4.a/	8r	.	2.r	.	.
.	8D\L 8F#X	.	8d\L 8f#X	.	.	.	.
.	8D\J 8F#	.	8d\J 8f#	.	.	.	.
8A/L]	8D\ 8F#	8a/L]	8d\ 8f#	.	.	.	.
8G#X/	8r	8g#X/	8r	.	.	.	.
8A/J	8r	8a/J	8r	.	.	.	.
=42	=42	=42	=42	=42	=42	=42	=42
*	*	*	*^	*	*	*	*
!	!	!LO:N:vis=2.	!	!	!	!	!	!
2.B-X/	8r	8b-/L	8r	2.b-X\	.	2.r	.	.
.	8D\L 8G#X	8ffn/	8fn\L	.	.	.	.	.
.	8D\J 8G#	8ee/J	8f\J	.	.	.	.	.
.	8D\L 8G#	8dd/L	8f\L	.	.	.	.	.
.	8D\ 8G#	8ccn/	8f\	.	.	.	.	.
.	8D\J 8G#	8b-/J	8f\J	.	.	.	.	.
*	*	*	*v	*v	*	*	*	*
!!LO:LB:g=original
=43	=43	=43	=43	=43	=43	=43	=43
4.A/	8r	8aT/L	8r	.	2.r	.	.
.	8D\L	8g#X/	8d\L 8f#X	.	.	.	.
.	8D\J	8a/J	8d\J 8f#	.	.	.	.
4ryy	8Cn\L	(8b-X^/L	8r	.	.	.	.
.	8C\ 8cn	8a/)	8d\L 8f#	.	.	.	.
8ryy	8BBn\J 8Bn	8dd/J	8fn\J 8a-X	.	.	.	.
*v	*v	*	*	*	*	*	*
=44	=44	=44	=44	=44	=44	=44
[8BB-X\L	(8a-X/L	8r	.	2.r	.	.
8BB-\] 8B-X	8g/)	8c#X\L 8e	.	.	.	.
8AAn\J 8An	8ccn/J	8e-X\J 8g-X	.	.	.	.
[8AA-X\L	8gn/L	8r	.	.	.	.
8AA-\] 8A-X	8fn/	8Bn\L 8d	.	.	.	.
8GGn\J 8Gn	8b-X/J	8c#X\J 8en	.	.	.	.
*	*v	*v	*	*	*	*
=45	=45	=45	=45	=45	=45
!LO:TUP:b:t=P:problem=klamra łukowa	!LO:TUP:b:t=P:problem=klamra łukowa	!	!	!	!
*tuplet	*tuplet	*	*	*	*
2FFn/ 2Fn	4c#/ 4e 4b-X	.	2.r	.	.
.	4d/ 4a	.	.	.	.
4GG/	4B-X/ 4e-X 4g	.	.	.	.
=46	=46	=46	=46	=46	=46
8AA/L	4.A/ 4.d 4.fn	.	2.r	.	.
8GG#X/	.	.	.	.	.
8AA/J	.	.	.	.	.
16qqAA/LL	.	.	.	.	.
16qqCn/JJ	.	.	.	.	.
(4BB-X^/	4.Gn/ 4.c# 4.en	.	.	.	.
8AA/)	.	.	.	.	.
=47	=47	=47	=47	=47	=47
*^	*	*	*	*	*
4.Fn/ 4.A	4.DD\ 4.D	8d/	.	2.r	.	.
.	.	[4d^>/	.	.	.	.
4.E/ 4.B 4.e	4.GGG\ 4.GG	8d/]	.	.	.	.
.	.	[4d^>/	.	.	.	.
=48	=48	=48	=48	=48	=48	=48
*ped	*	*	*	*	*	*
[<<2.F#X/ [<<2.A [2.f#X	[2.DDD\ [>>2.DD	8d/]	.	2.r	.	.
.	.	[>4d/	.	.	.	.
.	.	4.d/_>	.	.	.	.
=49	=49	=49	=49	=49	=49	=49
4F#/] 4A] 4f#]	4DDD\] 4DD]	4d/]	.	2.r	.	.
8r	8ryy	8r	.	.	.	.
*Xped	*	*	*	*	*	*
4r	4ryy	4r	.	.	.	.
8r	8ryy	8r	.	.	.	.
*v	*v	*	*	*	*	*
==	==	==	==	==	==
*-	*-	*-	*-	*-	*-
!!!RDF**kern: > = above
!!!RDF**kern: < = below
!!!system-decoration: s1{(s2,s3)}
!!!ENC: Berenika Jozajtis
!!!END: 2022-07-24
!!!ENC: Urszula Świątek
!!!END: 2022-08-17
!!!ENC-modern: Andrzej Borzym
!!!END-modern: 2022-08-27
!!!YEC: Copyright 2022 Narodowy Instytut Fryderyka Chopina (https://polishscores.org)
!!!YEM: License CC-BY-4.0 (https://creativecommons.org/licenses/by/4.0)
